!!!OTL: Nongmin fanshen bushouqiong
!!!ARE: Asia, China,ÿJiangsu Lishui
!! III, 428, 1)
!!!SCT: C1779
!!!YEM: Copyright 1995, estate of Helmut Schaffrath.
**kern
*ICvox
*Ivox
*M2/4
*k[]
*C:
{8cc
8cc
8.g
16a
=1
8cc
4cc
8a
=2
4dd
4ee
=3
8a
4cc
8a}
=4
{8cc
8b
4a
=5
4g
8a
16a
16cc
=6
8cc
8g
4a
=7
8cc
4g}
{16a
16cc
=8
8cc
8g
4cc
=9
4dd
4ee
=10
4dd
4ee
=11
8a
4cc
8a}
=12
{8cc
8b
4a
=13
4g
8a
16a
16cc
=14
8cc
8g
8a
8a
=15
2g}
==
!!!AGN: Xiaodiao
!!!AMT: simple duple
!!!AIN: vox
!!!EED: Helmut Schaffrath
!!!EEV: 1.0
*-
